X:3
T:Nightingale. Instr:Harp
C:Achazia Songweaver.
c:2008
N:Harp
Q:1/4=90
V:1
M:4/4
L:1/8
K:C
z8 |z E A E2 E AE |z E A E2 E AE |[c2G2] A [A2d2] E [Ae]E |[dB]G c [G2c2e2] G c[Ge] |fA e[Af] dA c[dA] |[cG]E A E2 [Ec] [Ac]E |[cG]E A [A2E2d2] E AE |[dB]G c [G2e2c2] G [ec]G |fA e[fA] dA c[dA] |z E [Ac] [E2G2] E AE |
[Gc]E A [E2A2d2] E [Ae]E |[d2B2] G [B2d2] z G2 |fA d[Af] dA c[Ae] |[ec]G cG [_Bd]F [Be][Fd/]d/ |[Ac]E AE [GB]c [GB][FA] |z2 F2 [FA][GB] [AcF][Ac] |z [dB] G2 [A2c2] [GB][Bd] |z [Ece] [Ace] E2 E AE |[Bd]E [Ace] E2 E AE |
[F2A2] F2 [FA][GB] [FAc][Ac] |z d [G2d2] d2 [Gc][Ac] |z E A E2 E AE |[Ac]E [ABd]E [ce]E [Adg]E |[f2a2] F2 ag [Fe]e |z d [G2B2d2] [B2d2] G2 |[Ac]E A [E2G2B2] E AE |[Ac]E A [E2G2B2] E AE |[F2A2] F2 [FA][GB] [FAc][Ac] |
z [Bd] [GBd]G [GAc][GBd] G[GBd] |z [Ece] [E3A3c3e3] E AE |[da]E A [E2c2g2] E [Ae]E |z E A E2 E AE |z E A E2 E AE |[Gc]E A [E2A2d2] E [Ae]E |[Bd]G c [G2c2e2] G c[Ge] |fA e[Af] dA c[Ad] |[Gc]E A E2 [Ec] [Ac]E |
[Gc]E A [E2A2d2] E AE |[Bd]G c [G2c2e2] G [ce]G |fA e[Af] dA c[Ad] |z E [Ac] [E2G2] E AE |[Gc]E A [E2A2d2] E [Ae]E |[B2d2] G [B2d2] z G2 |fA d[Af] dA c[Ae] |[ce]G cG [_Bd]F [Be][d/F]d/ |[Ac]E AE [GB]c [GB][FA] |
z2 F2 [FA][GB] [FAc][Ac] |z [Bd] G2 [A2c2] [GB][Bd] |z [Ece] [Ace] E2 E AE |[Bd]E [Ace] E2 E AE |[A2F2] F2 [FA][GB] [FAc][Ac] |z d [G2d2] d2 [Gc][Ac] |z E A E2 E AE |[Ac]E [ABd]E [ce]E [Adg]E |[f2a2] F2 ag [Fe]e |
z d [G2B2d2] [B2d2] G2 |[Ac]E A [E2G2B2] E AE |[Ac]E A [E2G2B2] E AE |[F2A2] F2 [FA][GB] [FAc][Ac] |z [Bd] [GBd]G [GAc][GBd] G[GBd] |z [Ece] [E3A3c3e3] E AE |[da]E A [E2c2g2] E [Ae]E |[G2d2] [F2c2] z3 A |
G2 z4 [z2E2-] |[AE4] B ce b2 [aE2-] c |[z2A8e8E4] a4 z2 |]
